X: 374
T: Ki v'Simcha
M: C
L: 1/8
K: C
[| "C"(EG F)E "G7"(FG) D2 | "G7"(DF ED) "C"(EF) G2 \
|  "C"(EG F)E "G7"(FG) D2 | "G7"(DF ED) "C"C2 "^fine"C2
w: Ki__ v'-sim-*cha t\'e-___ts\'e-*u u-__v'-sha-*lom tu-___va-lun.
|: "C"(G3 E) "(F)"c3 A | "C"G2 G2 "(G7)"G2 G2 \
|  "C"(G3 E) "(F)"c3 A | "C"G2 G2 "(G7)"G2 G2
w: He-_ha-rim v'-hag-va-ot yif-ts'-chu lif-n\'e-chem ri-na
|  "C"(G3 E)      c3 B | "F"A2 A2 A2 A2 \
|  "F"(AB cB) "(C)"(BA A)G | "C"(GF) GA "G7"G4 :|
w: v'-_chol a-tse ha-sa-de yim-___cha-__u yim-_cha-u-chaf.
%
W:You shall go forth with joy and in peace shall you be led.
W:The mountains and the hills shall burst into song before you.
